lib/flags/l/BS.svg

<svg xmlns="http://www.w3.org/2000/svg" fill="none" viewBox="0 0 32 24"><mask id="BS_svg__a" width="32" height="24" x="0" y="0" maskUnits="userSpaceOnUse"><path fill="#fff" d="M0 0h32v24H0z"/></mask><g fill-rule="evenodd" clip-rule="evenodd" mask="url(#BS_svg__a)"><path fill="#FECA00" d="M0 0h32v24H0V0z"/><path fill="#3CB1CF" d="M0 0v8h32V0H0zm0 16v8h32v-8H0z"/><path fill="#272727" d="M0 0l16 12L0 24V0z"/></g></svg>

<svg xmlns="http://www.w3.org/2000/svg" fill="none" viewBox="0 0 32 24"><mask id="BS_svg__a" width="32" height="24" x="0" y="0" mask-type="alpha" maskUnits="userSpaceOnUse"><path fill="#fff" d="M0 0H32V24H0z"/></mask><g fill-rule="evenodd" clip-rule="evenodd" mask="url(#BS_svg__a)"><path fill="#FECA00" d="M0 0H32V24H0V0Z"/><path fill="#3CB1CF" d="M0 0V8H32V0H0zM0 16V24H32V16H0z"/><path fill="#272727" d="M0 0L16 12L0 24V0Z"/></g></svg>
